src/assets/icons/media-reading-writing,simple,book.svg

<svg width="48" height="48" viewBox="0 0 48 48" fill="none" xmlns="http://www.w3.org/2000/svg">
<path opacity="0.2" fill-rule="evenodd" clip-rule="evenodd" d="M11.1716 11.1716C10 12.3431 10 14.2288 10 18V30C10 33.7712 10 35.6569 11.1716 36.8284C12.3431 38 14.2288 38 18 38H30C33.7712 38 35.6569 38 36.8284 36.8284C38 35.6569 38 33.7712 38 30V18C38 14.2288 38 12.3431 36.8284 11.1716C35.6569 10 33.7712 10 30 10H18C14.2288 10 12.3431 10 11.1716 11.1716ZM14.2929 15.2929C14 15.5858 14 16.0572 14 17C14 17.9428 14 18.4142 14.2929 18.7071C14.5858 19 15.0572 19 16 19H27C27.9428 19 28.4142 19 28.7071 18.7071C29 18.4142 29 17.9428 29 17C29 16.0572 29 15.5858 28.7071 15.2929C28.4142 15 27.9428 15 27 15H16C15.0572 15 14.5858 15 14.2929 15.2929Z" fill="black"/>
<path opacity="0.2" d="M13 18C13 14.2288 13 12.3431 14.1716 11.1716C15.3431 10 17.2288 10 21 10H30C33.7712 10 35.6569 10 36.8284 11.1716C38 12.3431 38 14.2288 38 18V30C38 33.7712 38 35.6569 36.8284 36.8284C35.6569 38 33.7712 38 30 38H21C17.2288 38 15.3431 38 14.1716 36.8284C13 35.6569 13 33.7712 13 30V18Z" fill="black"/>
<path fill-rule="evenodd" clip-rule="evenodd" d="M27.7891 38H29.9996C33.7708 38 35.6564 38 36.828 36.8284C37.9996 35.6569 37.9996 33.7712 37.9996 30V18C37.9996 14.2288 37.9996 12.3431 36.828 11.1716C35.6564 10 33.7708 10 29.9996 10H27.7891C31.5603 10 33.4459 10 34.6175 11.1716C35.7891 12.3431 35.7891 14.2288 35.7891 18V30C35.7891 33.7712 35.7891 35.6569 34.6175 36.8284C33.4459 38 31.5603 38 27.7891 38Z" fill="black"/>
<path fill-rule="evenodd" clip-rule="evenodd" d="M11.1716 11.1716C10 12.3431 10 14.2288 10 18V30C10 33.7712 10 35.6569 11.1716 36.8284C12.3431 38 14.2288 38 18 38H25.5789C29.3502 38 31.2358 38 32.4074 36.8284C33.5789 35.6569 33.5789 33.7712 33.5789 30V18C33.5789 14.2288 33.5789 12.3431 32.4074 11.1716C31.2358 10 29.3502 10 25.5789 10H18C14.2288 10 12.3431 10 11.1716 11.1716ZM14.2929 15.2929C14 15.5858 14 16.0572 14 17C14 17.9428 14 18.4142 14.2929 18.7071C14.5858 19 15.0572 19 16 19H27C27.9428 19 28.4142 19 28.7071 18.7071C29 18.4142 29 17.9428 29 17C29 16.0572 29 15.5858 28.7071 15.2929C28.4142 15 27.9428 15 27 15H16C15.0572 15 14.5858 15 14.2929 15.2929Z" fill="black"/>
<rect opacity="0.2" x="5" y="5" width="38" height="38" rx="4" fill="black"/>
</svg>

<svg xmlns="http://www.w3.org/2000/svg" width="48" height="48" fill="none" viewBox="0 0 48 48">
  <path fill="#000" fill-rule="evenodd" d="M11.172 11.172C10 12.343 10 14.229 10 18v12c0 3.771 0 5.657 1.172 6.828C12.343 38 14.229 38 18 38h12c3.771 0 5.657 0 6.828-1.172C38 35.657 38 33.771 38 30V18c0-3.771 0-5.657-1.172-6.828C35.657 10 33.771 10 30 10H18c-3.771 0-5.657 0-6.828 1.172zm3.12 4.12C14 15.587 14 16.058 14 17s0 1.414.293 1.707C14.586 19 15.057 19 16 19h11c.943 0 1.414 0 1.707-.293C29 18.414 29 17.943 29 17c0-.943 0-1.414-.293-1.707C28.414 15 27.943 15 27 15H16c-.943 0-1.414 0-1.707.293z" clip-rule="evenodd" opacity=".2"/>
  <path fill="#000" d="M13 18c0-3.771 0-5.657 1.172-6.828C15.343 10 17.229 10 21 10h9c3.771 0 5.657 0 6.828 1.172C38 12.343 38 14.229 38 18v12c0 3.771 0 5.657-1.172 6.828C35.657 38 33.771 38 30 38h-9c-3.771 0-5.657 0-6.828-1.172C13 35.657 13 33.771 13 30V18z" opacity=".2"/>
  <path fill="#000" fill-rule="evenodd" d="M27.79 38H30c3.77 0 5.656 0 6.828-1.172C38 35.657 38 33.771 38 30V18c0-3.771 0-5.657-1.172-6.828C35.656 10 33.771 10 30 10h-2.21c3.77 0 5.656 0 6.828 1.172 1.171 1.171 1.171 3.057 1.171 6.828v12c0 3.771 0 5.657-1.172 6.828C33.447 38 31.56 38 27.79 38z" clip-rule="evenodd"/>
  <path fill="#000" fill-rule="evenodd" d="M11.172 11.172C10 12.343 10 14.229 10 18v12c0 3.771 0 5.657 1.172 6.828C12.343 38 14.229 38 18 38h7.579c3.771 0 5.657 0 6.828-1.172C33.58 35.657 33.58 33.771 33.58 30V18c0-3.771 0-5.657-1.172-6.828C31.236 10 29.35 10 25.58 10H18c-3.771 0-5.657 0-6.828 1.172zm3.12 4.12C14 15.587 14 16.058 14 17s0 1.414.293 1.707C14.586 19 15.057 19 16 19h11c.943 0 1.414 0 1.707-.293C29 18.414 29 17.943 29 17c0-.943 0-1.414-.293-1.707C28.414 15 27.943 15 27 15H16c-.943 0-1.414 0-1.707.293z" clip-rule="evenodd"/>
  <rect width="38" height="38" x="5" y="5" fill="#000" opacity=".2" rx="4"/>
</svg>
